public/assets/img/start2.svg

<svg width="76" height="76" viewBox="0 0 76 76" fill="none" xmlns="http://www.w3.org/2000/svg">
<path d="M26.2766 50.8361H28.8265V48.2302C29.6004 48.0727 30.2881 47.6344 30.7563 47.0002C31.2244 46.366 31.4397 45.5812 31.3603 44.7978C31.2809 44.0144 30.9125 43.2883 30.3266 42.7602C29.7407 42.2322 28.9789 41.9398 28.189 41.9398H26.9141C26.745 41.9398 26.5828 41.8728 26.4633 41.7536C26.3437 41.6345 26.2766 41.4728 26.2766 41.3043C26.2766 41.1358 26.3437 40.9741 26.4633 40.855C26.5828 40.7358 26.745 40.6689 26.9141 40.6689H31.3764V38.1271H28.8265V35.5853H26.2766V38.1911C25.5027 38.3486 24.815 38.7869 24.3468 39.4211C23.8787 40.0553 23.6634 40.8402 23.7428 41.6236C23.8222 42.407 24.1906 43.1331 24.7765 43.6611C25.3624 44.1892 26.1242 44.4815 26.9141 44.4816H28.189C28.3581 44.4816 28.5202 44.5485 28.6398 44.6677C28.7593 44.7869 28.8265 44.9485 28.8265 45.117C28.8265 45.2855 28.7593 45.4472 28.6398 45.5663C28.5202 45.6855 28.3581 45.7525 28.189 45.7525H23.7267V48.2943H26.2766V50.8361Z" fill="#90A1AE"/>
<path d="M73.4501 31.7725C73.4501 31.4355 73.3158 31.1122 73.0767 30.8739C72.8376 30.6355 72.5133 30.5016 72.1751 30.5016H64.5254C64.1872 30.5016 63.8629 30.6355 63.6238 30.8739C63.3847 31.1122 63.2504 31.4355 63.2504 31.7725V36.8562H56.8756C56.5375 36.8562 56.2132 36.9901 55.9741 37.2284C55.735 37.4667 55.6007 37.79 55.6007 38.1271V41.9398H49.2259C48.8877 41.9398 48.5634 42.0737 48.3243 42.312C48.0852 42.5503 47.9509 42.8736 47.9509 43.2107V55.2053L42.8114 49.0576C43.7842 46.9522 44.2285 44.6426 44.1061 42.3279C43.9838 40.0132 43.2983 37.763 42.1089 35.7712L47.1231 31.7725H55.6007V29.2307H46.6759C46.3864 29.2307 46.1055 29.3289 45.8795 29.5092L40.6124 33.7095C40.5755 33.6671 40.5407 33.6233 40.5033 33.5813L34.1278 26.4317L35.2794 23.5619C35.4675 23.0932 35.5172 22.5806 35.4227 22.0846C35.3282 21.5886 35.0934 21.1299 34.7459 20.7626C34.3985 20.3952 33.9529 20.1346 33.4617 20.0114C32.9706 19.8881 32.4543 19.9075 31.9738 20.0671C31.9518 20.0745 31.928 20.0745 31.906 20.067C31.884 20.0595 31.8651 20.045 31.8523 20.0257L30.5945 18.1451C30.2605 17.6457 29.808 17.2363 29.2772 16.9531C28.7464 16.6699 28.1536 16.5217 27.5515 16.5217C26.9494 16.5217 26.3566 16.6699 25.8258 16.9531C25.295 17.2363 24.8425 17.6457 24.5085 18.1451L23.2509 20.0257C23.238 20.045 23.2191 20.0595 23.1971 20.067C23.1751 20.0744 23.1513 20.0745 23.1293 20.0671C22.6488 19.9075 22.1325 19.8881 21.6414 20.0113C21.1502 20.1345 20.7047 20.3952 20.3572 20.7625C20.0098 21.1298 19.775 21.5885 19.6804 22.0845C19.5859 22.5805 19.6356 23.0931 19.8237 23.5618L20.9753 26.4317L14.5999 33.5812C12.8428 35.5506 11.6664 37.9661 11.2009 40.5606C10.7354 43.155 10.999 45.8272 11.9624 48.2817L0 57.4542L1.55479 59.4688L4.17011 57.4634L14.292 70.9163L10.2121 73.9664L11.742 76L16.7196 72.2787L25.5039 68.526C25.781 68.4076 26.0071 68.1951 26.142 67.9262L28.4455 63.3336L39.1045 60.1463C39.7544 59.9522 40.3329 59.5722 40.7682 59.0535C41.2036 58.5348 41.4767 57.9002 41.5537 57.2283C41.6307 56.5564 41.5082 55.8767 41.2014 55.2735C40.8947 54.6703 40.4171 54.1701 39.8279 53.8348L41.4537 51.4039L46.9714 58.0041C47.0911 58.1473 47.2408 58.2624 47.4101 58.3415C47.5794 58.4205 47.764 58.4615 47.9509 58.4615H76V55.9197H73.4501V31.7725ZM22.2125 22.5064C22.2249 22.4897 22.2427 22.4779 22.2628 22.4728C22.283 22.4678 22.3043 22.4698 22.3231 22.4786C22.8758 22.6613 23.4735 22.6581 24.0243 22.4697C24.5751 22.2814 25.0487 21.9181 25.3726 21.4356L26.6302 19.555C26.7313 19.4038 26.8683 19.2799 27.029 19.1941C27.1897 19.1084 27.3692 19.0635 27.5515 19.0635C27.7338 19.0635 27.9133 19.1084 28.074 19.1941C28.2347 19.2799 28.3717 19.4038 28.4728 19.555L29.7306 21.4356C30.0545 21.918 30.5281 22.2812 31.0789 22.4696C31.6297 22.658 32.2272 22.6611 32.78 22.4786C32.7992 22.4722 32.8197 22.4715 32.8393 22.4764C32.8589 22.4813 32.8767 22.4917 32.8905 22.5063C32.9044 22.521 32.9138 22.5392 32.9175 22.559C32.9213 22.5788 32.9193 22.5992 32.9118 22.6179L31.7882 25.418H23.3149L22.1913 22.6178C22.1814 22.5996 22.1781 22.5786 22.182 22.5583C22.1858 22.538 22.1966 22.5197 22.2125 22.5064ZM13.527 43.0794C13.5259 40.2003 14.5859 37.421 16.5057 35.2699L23.0242 27.9598H24.6903C24.0322 28.9425 23.6089 30.0626 23.4532 31.2339C23.2975 32.4052 23.4134 33.5965 23.7921 34.7162L26.2111 33.9125C25.8996 32.9911 25.8532 32.0012 26.0773 31.0548C26.3014 30.1085 26.787 29.2437 27.4791 28.5585L27.5515 28.4862L27.6239 28.5584C28.316 29.2436 28.8016 30.1084 29.0258 31.0548C29.2499 32.0011 29.2035 32.9911 28.8919 33.9125L31.311 34.7162C31.6896 33.5965 31.8056 32.4052 31.6499 31.2339C31.4941 30.0626 31.0709 28.9425 30.4128 27.9598H32.0789L38.5974 35.27C40.3296 37.2125 41.3672 39.6725 41.5478 42.2653C41.7284 44.8581 41.0419 47.4374 39.5956 49.5999L37.0689 53.3779H20.6898L21.8829 50.9991C22.256 50.2531 22.4507 49.4311 22.4517 48.5976C22.4517 47.8289 22.2358 47.0756 21.8284 46.423C21.4211 45.7704 20.8385 45.2445 20.1467 44.9049C19.4549 44.5654 18.6816 44.4257 17.9142 44.5017C17.1469 44.5778 16.4163 44.8665 15.8051 45.3351L14.0868 46.6527C13.7175 45.4973 13.5287 44.2921 13.527 43.0794ZM38.3718 57.7115L27.1852 61.0568C27.0186 61.1067 26.864 61.1899 26.7309 61.3016C26.5978 61.4132 26.489 61.5507 26.4112 61.7058L24.0701 66.373L16.4956 69.6089L6.19135 55.9136L17.3597 47.3498C17.5935 47.1706 17.8729 47.0602 18.1664 47.0311C18.4599 47.002 18.7556 47.0554 19.0202 47.1853C19.2848 47.3152 19.5076 47.5163 19.6634 47.7659C19.8192 48.0155 19.9018 48.3036 19.9018 48.5976C19.9013 49.0365 19.7987 49.4694 19.6023 49.8623L17.4865 54.0803C17.3893 54.2741 17.3434 54.4894 17.3531 54.7058C17.3629 54.9223 17.428 55.1326 17.5423 55.3169C17.6565 55.5012 17.8161 55.6533 18.0059 55.7588C18.1958 55.8643 18.4095 55.9197 18.6268 55.9197H38.108C38.3284 55.9197 38.5415 55.9987 38.7083 56.1423C38.8751 56.286 38.9844 56.4846 39.0164 56.702C39.0485 56.9194 39.0009 57.141 38.8826 57.3263C38.7642 57.5117 38.5829 57.6484 38.3718 57.7115ZM50.5008 44.4816H55.6007V55.9197H50.5008V44.4816ZM58.1506 39.398H63.2504V55.9197H58.1506V39.398ZM65.8003 55.9197V33.0434H70.9002V55.9197H65.8003Z" fill="#90A1AE"/>
<path d="M61.9754 0C59.2017 0 56.4902 0.819908 54.1838 2.35604C51.8775 3.89217 50.0799 6.07554 49.0185 8.63004C47.957 11.1845 47.6792 13.9954 48.2204 16.7073C48.7615 19.4191 50.0972 21.9101 52.0586 23.8652C54.02 25.8203 56.5189 27.1518 59.2394 27.6912C61.9599 28.2306 64.7798 27.9538 67.3424 26.8957C69.9051 25.8376 72.0954 24.0457 73.6364 21.7467C75.1775 19.4478 76 16.7449 76 13.9799C75.9958 10.2735 74.5169 6.72008 71.8877 4.09925C69.2585 1.47841 65.6937 0.00418663 61.9754 0ZM73.3776 12.709H68.222C67.9697 11.4891 67.3644 10.3696 66.4809 9.48885C65.5973 8.60811 64.4742 8.00473 63.2504 7.75328V2.6141C65.8354 2.90602 68.2445 4.06343 70.0841 5.89711C71.9236 7.73079 73.0847 10.1323 73.3776 12.709ZM67.2914 17.4816C67.7427 16.8046 68.0586 16.0471 68.222 15.2508H73.3776C73.1377 17.3965 72.2906 19.4299 70.9352 21.1137L67.2914 17.4816ZM61.9754 10.1672C62.7319 10.1672 63.4714 10.3908 64.1004 10.8098C64.7294 11.2287 65.2197 11.8242 65.5092 12.5209C65.7987 13.2175 65.8744 13.9841 65.7268 14.7237C65.5793 15.4633 65.215 16.1427 64.68 16.6759C64.1451 17.2091 63.4636 17.5723 62.7216 17.7194C61.9797 17.8665 61.2106 17.791 60.5117 17.5024C59.8128 17.2138 59.2155 16.7251 58.7952 16.0981C58.3749 15.4711 58.1506 14.734 58.1506 13.9799C58.1517 12.9691 58.5551 12 59.2721 11.2852C59.9892 10.5704 60.9614 10.1684 61.9754 10.1672ZM50.5008 13.9799C50.5045 11.1676 51.5461 8.45494 53.4271 6.35888C55.3081 4.26281 57.897 2.92989 60.7005 2.6141V7.75328C59.7791 7.93995 58.9105 8.32751 58.157 8.88816C57.4035 9.44882 56.7837 10.1687 56.3422 10.9962C55.9006 11.8237 55.6482 12.7383 55.6029 13.6745C55.5577 14.6107 55.7208 15.5453 56.0805 16.4112C56.4402 17.2772 56.9877 18.0531 57.6836 18.6834C58.3796 19.3136 59.2068 19.7826 60.106 20.0567C61.0051 20.3308 61.954 20.4032 62.8845 20.2687C63.8151 20.1342 64.7043 19.7962 65.4883 19.2789L69.1321 22.9111C67.4452 24.2572 65.4111 25.1008 63.2641 25.3446C61.1171 25.5884 58.9448 25.2224 56.9974 24.2889C55.05 23.3554 53.4069 21.8924 52.2575 20.0684C51.1081 18.2445 50.4991 16.1339 50.5008 13.9799Z" fill="#90A1AE"/>
</svg>

<svg width="76" height="76" fill="none" xmlns="http://www.w3.org/2000/svg"><path d="M26.277 50.836h2.55V48.23a3.189 3.189 0 0 0 1.93-1.23 3.17 3.17 0 0 0-.43-4.24 3.193 3.193 0 0 0-2.138-.82h-1.275a.638.638 0 0 1-.637-.636.634.634 0 0 1 .637-.635h4.462v-2.542h-2.55v-2.542h-2.55v2.606a3.189 3.189 0 0 0-1.93 1.23 3.17 3.17 0 0 0 .43 4.24c.586.528 1.348.82 2.138.82h1.275a.638.638 0 0 1 .637.636.634.634 0 0 1-.637.636h-4.462v2.541h2.55v2.542Z" fill="#90A1AE"/><path d="M73.45 31.773c0-.337-.134-.66-.373-.9a1.277 1.277 0 0 0-.902-.371h-7.65a1.277 1.277 0 0 0-1.275 1.27v5.084h-6.374a1.269 1.269 0 0 0-1.275 1.27v3.814h-6.375a1.269 1.269 0 0 0-1.275 1.27v11.995l-5.14-6.147a14.25 14.25 0 0 0-.702-13.287l5.014-3.998h8.478V29.23h-8.925c-.29 0-.57.098-.797.278l-5.267 4.2c-.037-.042-.071-.086-.109-.128l-6.375-7.15 1.151-2.87a2.64 2.64 0 0 0-.533-2.798 2.657 2.657 0 0 0-2.772-.696.106.106 0 0 1-.122-.041l-1.258-1.88a3.653 3.653 0 0 0-3.043-1.624 3.666 3.666 0 0 0-3.042 1.623l-1.258 1.88a.106.106 0 0 1-.122.042 2.664 2.664 0 0 0-2.772.695 2.645 2.645 0 0 0-.533 2.8l1.151 2.87-6.375 7.15a14.245 14.245 0 0 0-2.637 14.7L0 57.454l1.555 2.015 2.615-2.006 10.122 13.453-4.08 3.05L11.742 76l4.978-3.721 8.784-3.753c.277-.118.503-.33.638-.6l2.303-4.592 10.66-3.188a3.467 3.467 0 0 0 1.663-1.093 3.45 3.45 0 0 0-.94-5.218l1.626-2.431 5.517 6.6a1.275 1.275 0 0 0 .98.458H76V55.92h-2.55V31.772Zm-51.238-9.267a.09.09 0 0 1 .111-.027 2.67 2.67 0 0 0 3.05-1.043l1.257-1.881a1.106 1.106 0 0 1 1.444-.36c.16.085.298.209.399.36l1.258 1.88a2.661 2.661 0 0 0 3.049 1.044.106.106 0 0 1 .132.139l-1.124 2.8h-8.473l-1.124-2.8a.09.09 0 0 1 .021-.112ZM13.527 43.08a11.721 11.721 0 0 1 2.979-7.81l6.518-7.31h1.666a7.71 7.71 0 0 0-.898 6.757l2.42-.803a5.189 5.189 0 0 1 1.267-5.354l.073-.073.072.072a5.2 5.2 0 0 1 1.268 5.355l2.419.803a7.702 7.702 0 0 0-.898-6.756h1.666l6.518 7.31a11.726 11.726 0 0 1 .998 14.33l-2.526 3.778h-16.38l1.194-2.379a5.383 5.383 0 0 0 .569-2.401 4.124 4.124 0 0 0-2.305-3.693 4.141 4.141 0 0 0-4.342.43l-1.718 1.318a11.79 11.79 0 0 1-.56-3.574Zm24.845 14.633-11.187 3.345a1.276 1.276 0 0 0-.774.649l-2.34 4.667-7.575 3.236L6.19 55.914 17.36 47.35a1.583 1.583 0 0 1 2.303.416c.156.25.239.538.239.832 0 .438-.103.871-.3 1.264l-2.116 4.218a1.268 1.268 0 0 0 1.14 1.84h19.482a.92.92 0 0 1 .908.782.912.912 0 0 1-.644 1.01ZM50.5 44.481h5.1V55.92h-5.1V44.482Zm7.65-5.084h5.1V55.92h-5.1V39.398ZM65.8 55.92V33.043h5.1V55.92h-5.1Z" fill="#90A1AE"/><path d="M61.975 0c-2.773 0-5.485.82-7.791 2.356a13.99 13.99 0 0 0-5.165 6.274 13.938 13.938 0 0 0-.799 8.077 13.966 13.966 0 0 0 3.839 7.158 14.039 14.039 0 0 0 7.18 3.826c2.72.54 5.54.263 8.103-.795a14.014 14.014 0 0 0 6.294-5.15A13.947 13.947 0 0 0 76 13.98a13.973 13.973 0 0 0-4.112-9.88A14.063 14.063 0 0 0 61.975 0Zm11.403 12.709h-5.156a6.368 6.368 0 0 0-1.741-3.22 6.4 6.4 0 0 0-3.23-1.736V2.614a11.509 11.509 0 0 1 6.833 3.283c1.84 1.834 3 4.235 3.294 6.812Zm-6.087 4.773a6.308 6.308 0 0 0 .931-2.231h5.156a11.363 11.363 0 0 1-2.443 5.863l-3.644-3.632Zm-5.316-7.315c.757 0 1.496.224 2.125.643a3.8 3.8 0 0 1 .58 5.866 3.829 3.829 0 0 1-4.168.826 3.822 3.822 0 0 1-1.717-1.404 3.804 3.804 0 0 1 .477-4.813 3.836 3.836 0 0 1 2.703-1.118ZM50.501 13.98a11.433 11.433 0 0 1 2.926-7.621A11.502 11.502 0 0 1 60.7 2.614v5.14a6.385 6.385 0 0 0-4.358 3.242 6.339 6.339 0 0 0 1.342 7.687 6.381 6.381 0 0 0 5.2 1.586 6.387 6.387 0 0 0 2.604-.99l3.644 3.632a11.498 11.498 0 0 1-12.135 1.378 11.453 11.453 0 0 1-4.74-4.22 11.402 11.402 0 0 1-1.756-6.09Z" fill="#90A1AE"/></svg>
